!! 00000] TT[WS
!!!OTL: Fangbeihou deng meimei shi kelian
!!!ARE: Asia, China, Shanxi Hequ
!! Ethnic Group: Han
!! WII, 23
!!!SCT: J0429
!!!YEM: Copyright 1995, estate of Helmut Schaffrath.
**kern
*ICvox
*Ivox
*M2/4
*k[f#c#]
*D:
{8dd
4ee
16a
16a
=1
8g#
8a
4e
=2
8dd
8b
8a
8g#
=3
2e}
=4
{8dd
4ee
16a
16a
=5
8g#
8a
4e
=6
8b
8a
8e
8d
=7
2A}
==
!!!AGN: Shange, Shanqu. Qingge
!!!ONB: ESAC (Essen Associative Code) Database: CHINA
!!!AMT: simple duple
!!!AIN: vox
!!!EED: Helmut Schaffrath
!!!EEV: 1.0
*-
